assets/Hippopotamus/Flat/hippopotamus_flat.svg

<svg width="32" height="32" viewBox="0 0 32 32" fill="none" xmlns="http://www.w3.org/2000/svg">
<path d="M8.00002 22H13L10.12 29.68C10.04 29.87 9.86002 30 9.65002 30H5.72002C5.37002 30 5.13002 29.65 5.25002 29.32L8.00002 22Z" fill="#636363"/>
<path d="M19 22H24L21.12 29.68C21.04 29.87 20.86 30 20.65 30H16.72C16.37 30 16.13 29.65 16.25 29.32L19 22Z" fill="#636363"/>
<path d="M29.19 16.5C27.87 14.07 25.57 13 22.36 13H12.97C10.78 13 9 14.78 9 16.97V24.57C10.71 24.93 12.42 25.46 13.76 26.62C14.05 26.87 14.33 27.17 14.56 27.5H25.92C28.18 27.5 30.01 25.67 30.01 23.41V19.68C30 18.53 29.71 17.44 29.19 16.5Z" fill="#636363"/>
<path d="M11.92 12C11.41 12 11 12.41 11 12.92V13.5237C10.5658 13.7728 10.1829 14.1016 9.87141 14.49H9V12.92C9 12.41 8.59 12 8.08 12C7.39 12 6.94 12.73 7.26 13.35L7.82 14.49H7.19C6.32 14.49 5.62 15.19 5.62 16.06V18.1634C3.57012 18.4582 2 20.2172 2 22.35C2 24.68 3.89 26.57 6.23 26.57H12V27.13C12 27.7 11.85 28.26 11.57 28.75L11.29 29.25C11.1 29.59 11.34 30 11.72 30H16.5C16.78 30 17 29.78 17 29.5V27.5L20 26L22.9897 27.4948C22.9563 27.9086 22.8426 28.3165 22.66 28.69L22.36 29.28C22.2 29.61 22.44 30 22.81 30H27.5C27.78 30 28 29.78 28 29.5V26.9329C28.3763 26.7104 28.7138 26.4292 29 26.102V26.99C29 27.27 29.22 27.49 29.5 27.49C29.78 27.49 30 27.27 30 26.99V23.6985C30.0066 23.6032 30.01 23.507 30.01 23.41V19.68C30 18.53 29.71 17.44 29.19 16.5C27.87 14.07 25.57 13 22.36 13H12.97C12.9271 13 12.8843 13.0007 12.8417 13.002C12.8864 12.4862 12.4831 12 11.92 12Z" fill="#9B9B9B"/>
<path d="M8.08 12.9C8.07 12.32 7.19 12.3 7.16 12.88C7.15 13.03 7.18 13.19 7.26 13.35L7.82 14.49H8.08V12.9Z" fill="#FF8687"/>
<path d="M22.33 25.33C22.76 25.76 23 26.34 23 26.95V27.49H17V25H22L22.33 25.33Z" fill="#FF8687"/>
<path d="M12.84 12.88C12.81 12.3 11.93 12.32 11.92 12.9V14.49H12.18L12.74 13.35C12.82 13.19 12.85 13.03 12.84 12.88Z" fill="#FF8687"/>
<path d="M3.81 21.7399C3.81 23.0799 4.9 24.1599 6.23 24.1599H13.48C14.82 24.1599 15.9 23.0799 15.9 21.7399C15.9 20.3999 14.81 19.3199 13.48 19.3199H6.23C4.9 19.3199 3.81 20.3999 3.81 21.7399Z" fill="#FF8687"/>
<path d="M6.45002 21.67L7.01002 22.24C7.25002 22.47 7.63002 22.47 7.87002 22.24C8.11002 22.01 8.11002 21.63 7.87002 21.39L7.30002 20.82C7.07002 20.58 6.69002 20.58 6.45002 20.82C6.21002 21.05 6.21002 21.43 6.45002 21.67Z" fill="#A56953"/>
<path d="M13.52 21.67L12.95 22.24C12.72 22.47 12.33 22.47 12.1 22.23C11.86 22 11.86 21.62 12.1 21.38L12.67 20.82C12.9 20.58 13.28 20.58 13.52 20.82C13.76 21.05 13.76 21.43 13.52 21.67Z" fill="#A56953"/>
<path d="M8 18.5C8 18.78 8.22 19 8.5 19C8.78 19 9 18.78 9 18.5V17.87C9 17.59 8.78 17.37 8.5 17.37C8.22 17.37 8 17.59 8 17.87V18.5Z" fill="#1C1C1C"/>
<path d="M11 18.5C11 18.78 11.22 19 11.5 19C11.78 19 12 18.78 12 18.5V17.87C12 17.59 11.78 17.37 11.5 17.37C11.22 17.37 11 17.59 11 17.87V18.5Z" fill="#1C1C1C"/>
</svg>

<svg xmlns="http://www.w3.org/2000/svg" width="32" height="32" fill="none"><path fill="#636363" d="M8 22h5l-2.88 7.68c-.08.19-.26.32-.47.32H5.72c-.35 0-.59-.35-.47-.68L8 22ZM19 22h5l-2.88 7.68c-.08.19-.26.32-.47.32h-3.93c-.35 0-.59-.35-.47-.68L19 22Z"/><path fill="#636363" d="M29.19 16.5c-1.32-2.43-3.62-3.5-6.83-3.5h-9.39C10.78 13 9 14.78 9 16.97v7.6c1.71.36 3.42.89 4.76 2.05.29.25.57.55.8.88h11.36c2.26 0 4.09-1.83 4.09-4.09v-3.73c-.01-1.15-.3-2.24-.82-3.18Z"/><path fill="#9B9B9B" d="M11.92 12c-.51 0-.92.41-.92.92v.604c-.434.249-.817.578-1.129.966H9v-1.57c0-.51-.41-.92-.92-.92-.69 0-1.14.73-.82 1.35l.56 1.14h-.63c-.87 0-1.57.7-1.57 1.57v2.103a4.225 4.225 0 0 0 .61 8.407H12v.56c0 .57-.15 1.13-.43 1.62l-.28.5a.5.5 0 0 0 .43.75h4.78c.28 0 .5-.22.5-.5v-2l3-1.5 2.99 1.495a3.345 3.345 0 0 1-.33 1.195l-.3.59c-.16.33.08.72.45.72h4.69c.28 0 .5-.22.5-.5v-2.567a4.106 4.106 0 0 0 1-.831v.888c0 .28.22.5.5.5s.5-.22.5-.5v-3.291c.007-.096.01-.192.01-.289v-3.73c-.01-1.15-.3-2.24-.82-3.18-1.32-2.43-3.62-3.5-6.83-3.5h-9.39c-.043 0-.086 0-.128.002A.925.925 0 0 0 11.92 12Z"/><path fill="#FF8687" d="M8.08 12.9c-.01-.58-.89-.6-.92-.02-.01.15.02.31.1.47l.56 1.14h.26V12.9ZM22.33 25.33c.43.43.67 1.01.67 1.62v.54h-6V25h5l.33.33ZM12.84 12.88c-.03-.58-.91-.56-.92.02v1.59h.26l.56-1.14a.91.91 0 0 0 .1-.47ZM3.81 21.74c0 1.34 1.09 2.42 2.42 2.42h7.25c1.34 0 2.42-1.08 2.42-2.42 0-1.34-1.09-2.42-2.42-2.42H6.23c-1.33 0-2.42 1.08-2.42 2.42Z"/><path fill="#A56953" d="m6.45 21.67.56.57c.24.23.62.23.86 0s.24-.61 0-.85l-.57-.57a.592.592 0 0 0-.85 0c-.24.23-.24.61 0 .85ZM13.52 21.67l-.57.57a.6.6 0 0 1-.85-.01.592.592 0 0 1 0-.85l.57-.56c.23-.24.61-.24.85 0 .24.23.24.61 0 .85Z"/><path fill="#1C1C1C" d="M8 18.5c0 .28.22.5.5.5s.5-.22.5-.5v-.63c0-.28-.22-.5-.5-.5s-.5.22-.5.5v.63ZM11 18.5c0 .28.22.5.5.5s.5-.22.5-.5v-.63c0-.28-.22-.5-.5-.5s-.5.22-.5.5v.63Z"/></svg>
